X:1
T: Mrs. McInroy of Lude
C:Joseph Lowe
C:arr. J.M. Hunter
R:Strathspey
Q: 128
K:Bm
M:4/4
L:1/16
|:c2|Bb3 b3^a bf3 f3^g|a3f e3a cA3 fedc|Bb3 b3^a bf3 f3b|a3f e3c BBB2 B2c2|
Bb3 b3^a bf3 f3^g|a3f e3a cA3 fedc|Bb3 b3^a bf3 f3b|a3f e3c BBB2 B2f2|
dB3 f3B b3B f3B|cA3 e3c a3A fedc|dB3 f3B b3B fb3|a3f ec3 BBB2 B3f|
dB3 f3B b3B f3B|cA3 e3c a3A e3c|((3B2c2d2) ((3c2d2e2) ((3d2e2f2) ((3e2f2g2) |((3f2e2d2) ((3e2d2c2) dB3 B3:|
